configs/network-logos/iota-evm-logo-light.svg

<svg width="124" height="24" viewBox="0 0 124 24" fill="none" xmlns="http://www.w3.org/2000/svg">
<g clip-path="url(#clip0_11324_7588)">
<path fill-rule="evenodd" clip-rule="evenodd" d="M108.243 4.15051L110.574 10.7581H110.666L112.996 4.15051H113.992L111.11 11.9998H110.129L107.247 4.15051H108.243ZM101.147 11.9999V4.15051H105.884V4.99371H102.097V7.64593H105.639V8.48912H102.097V11.1567H105.945V11.9999H101.147ZM116.673 4.15051H115.539V11.9998H116.428V6.03622H116.504L118.957 11.9998H119.816L122.269 6.03622H122.345V11.9998H123.234V4.15051H122.1L119.433 10.6661H119.341L116.673 4.15051Z" fill="#48566A"/>
<path fill-rule="evenodd" clip-rule="evenodd" d="M19.6562 1.43896C19.6562 2.23365 19.0103 2.87793 18.2135 2.87793C17.4168 2.87793 16.7708 2.23365 16.7708 1.43896C16.7708 0.644225 17.4168 0 18.2135 0C19.0103 0 19.6562 0.644225 19.6562 1.43896ZM21.2792 21.7645C21.2792 22.5592 20.6334 23.2034 19.8366 23.2034C19.0398 23.2034 18.3939 22.5592 18.3939 21.7645C18.3939 20.9697 19.0398 20.3255 19.8366 20.3255C20.6334 20.3255 21.2792 20.9697 21.2792 21.7645ZM18.6259 6.47533C19.2946 6.47533 19.8367 5.93465 19.8367 5.26768C19.8367 4.60065 19.2946 4.05997 18.6259 4.05997C17.9572 4.05997 17.4151 4.60065 17.4151 5.26768C17.4151 5.93465 17.9572 6.47533 18.6259 6.47533ZM23.0572 5.73015C23.0572 6.39712 22.515 6.93786 21.8463 6.93786C21.1776 6.93786 20.6355 6.39712 20.6355 5.73015C20.6355 5.06312 21.1776 4.52244 21.8463 4.52244C22.515 4.52244 23.0572 5.06312 23.0572 5.73015ZM18.2137 9.53315C18.7828 9.53315 19.2442 9.07298 19.2442 8.50533C19.2442 7.93767 18.7828 7.4775 18.2137 7.4775C17.6446 7.4775 17.1832 7.93767 17.1832 8.50533C17.1832 9.07298 17.6446 9.53315 18.2137 9.53315ZM22.4646 8.94227C22.4646 9.50992 22.0032 9.97015 21.4341 9.97015C20.865 9.97015 20.4036 9.50992 20.4036 8.94227C20.4036 8.37467 20.865 7.91444 21.4341 7.91444C22.0032 7.91444 22.4646 8.37467 22.4646 8.94227ZM24.0103 10.9722C24.5794 10.9722 25.0408 10.512 25.0408 9.94435C25.0408 9.3767 24.5794 8.91653 24.0103 8.91653C23.4412 8.91653 22.9798 9.3767 22.9798 9.94435C22.9798 10.512 23.4412 10.9722 24.0103 10.9722ZM21.3822 11.5374C21.3822 12.0341 20.9785 12.4367 20.4805 12.4367C19.9825 12.4367 19.5789 12.0341 19.5789 11.5374C19.5789 11.0407 19.9825 10.6381 20.4805 10.6381C20.9785 10.6381 21.3822 11.0407 21.3822 11.5374ZM17.2607 11.9997C17.7587 11.9997 18.1623 11.597 18.1623 11.1004C18.1623 10.6037 17.7587 10.201 17.2607 10.201C16.7627 10.201 16.359 10.6037 16.359 11.1004C16.359 11.597 16.7627 11.9997 17.2607 11.9997ZM23.9843 12.5394C23.9843 13.0361 23.5806 13.4387 23.0827 13.4387C22.5847 13.4387 22.181 13.0361 22.181 12.5394C22.181 12.0427 22.5847 11.64 23.0827 11.64C23.5806 11.64 23.9843 12.0427 23.9843 12.5394ZM19.1927 14.3124C19.6195 14.3124 19.9655 13.9672 19.9655 13.5415C19.9655 13.1157 19.6195 12.7706 19.1927 12.7706C18.7658 12.7706 18.4198 13.1157 18.4198 13.5415C18.4198 13.9672 18.7658 14.3124 19.1927 14.3124ZM22.5677 14.518C22.5677 14.9438 22.2216 15.2889 21.7948 15.2889C21.368 15.2889 21.0219 14.9438 21.0219 14.518C21.0219 14.0923 21.368 13.7471 21.7948 13.7471C22.2216 13.7471 22.5677 14.0923 22.5677 14.518ZM15.998 13.8497C16.4248 13.8497 16.7709 13.5045 16.7709 13.0788C16.7709 12.6531 16.4248 12.308 15.998 12.308C15.5712 12.308 15.2251 12.6531 15.2251 13.0788C15.2251 13.5045 15.5712 13.8497 15.998 13.8497ZM18.4197 14.9293C18.4197 15.2841 18.1314 15.5717 17.7757 15.5717C17.42 15.5717 17.1316 15.2841 17.1316 14.9293C17.1316 14.5745 17.42 14.2869 17.7757 14.2869C18.1314 14.2869 18.4197 14.5745 18.4197 14.9293ZM18.8833 17.3446C19.1964 17.3446 19.4501 17.0915 19.4501 16.7793C19.4501 16.4672 19.1964 16.2141 18.8833 16.2141C18.5704 16.2141 18.3166 16.4672 18.3166 16.7793C18.3166 17.0915 18.5704 17.3446 18.8833 17.3446ZM17.9818 17.242C17.9818 17.4974 17.7742 17.7045 17.518 17.7045C17.2619 17.7045 17.0543 17.4974 17.0543 17.242C17.0543 16.9865 17.2619 16.7795 17.518 16.7795C17.7742 16.7795 17.9818 16.9865 17.9818 17.242ZM16.3072 16.3681C16.6202 16.3681 16.874 16.115 16.874 15.8028C16.874 15.4906 16.6202 15.2375 16.3072 15.2375C15.9942 15.2375 15.7404 15.4906 15.7404 15.8028C15.7404 16.115 15.9942 16.3681 16.3072 16.3681ZM15.1996 14.4925C15.1996 14.8473 14.9113 15.1349 14.5555 15.1349C14.1998 15.1349 13.9115 14.8473 13.9115 14.4925C13.9115 14.1377 14.1998 13.8501 14.5555 13.8501C14.9113 13.8501 15.1996 14.1377 15.1996 14.4925ZM14.5296 10.3037C14.8853 10.3037 15.1736 10.0161 15.1736 9.66133C15.1736 9.30653 14.8853 9.01893 14.5296 9.01893C14.1739 9.01893 13.8855 9.30653 13.8855 9.66133C13.8855 10.0161 14.1739 10.3037 14.5296 10.3037ZM15.3798 7.47725C15.3798 7.78948 15.1261 8.04256 14.8131 8.04256C14.5001 8.04256 14.2463 7.78948 14.2463 7.47725C14.2463 7.16508 14.5001 6.91194 14.8131 6.91194C15.1261 6.91194 15.3798 7.16508 15.3798 7.47725ZM15.4313 6.19249C15.6874 6.19249 15.895 5.98541 15.895 5.72993C15.895 5.4745 15.6874 5.26741 15.4313 5.26741C15.1752 5.26741 14.9676 5.4745 14.9676 5.72993C14.9676 5.98541 15.1752 6.19249 15.4313 6.19249ZM14.9161 4.75377C14.9161 5.066 14.6623 5.31908 14.3494 5.31908C14.0364 5.31908 13.7826 5.066 13.7826 4.75377C13.7826 4.4416 14.0364 4.18846 14.3494 4.18846C14.6623 4.18846 14.9161 4.4416 14.9161 4.75377ZM20.3518 16.5478C20.7075 16.5478 20.9959 16.2602 20.9959 15.9054C20.9959 15.5507 20.7075 15.263 20.3518 15.263C19.9961 15.263 19.7078 15.5507 19.7078 15.9054C19.7078 16.2602 19.9961 16.5478 20.3518 16.5478ZM13.5249 3.93144C13.5249 4.28619 13.2366 4.57378 12.8809 4.57378C12.5252 4.57378 12.2368 4.28619 12.2368 3.93144C12.2368 3.57665 12.5252 3.28905 12.8809 3.28905C13.2366 3.28905 13.5249 3.57665 13.5249 3.93144ZM13.3189 7.29774C13.6747 7.29774 13.963 7.01014 13.963 6.65534C13.963 6.30055 13.6747 6.01295 13.3189 6.01295C12.9632 6.01295 12.6749 6.30055 12.6749 6.65534C12.6749 7.01014 12.9632 7.29774 13.3189 7.29774ZM13.3707 9.12182C13.3707 9.54753 13.0247 9.89267 12.5979 9.89267C12.171 9.89267 11.825 9.54753 11.825 9.12182C11.825 8.69605 12.171 8.35096 12.5979 8.35096C13.0247 8.35096 13.3707 8.69605 13.3707 9.12182ZM10.2532 9.89267C10.7512 9.89267 11.1549 9.48998 11.1549 8.9933C11.1549 8.49662 10.7512 8.09399 10.2532 8.09399C9.75523 8.09399 9.35152 8.49662 9.35152 8.9933C9.35152 9.48998 9.75523 9.89267 10.2532 9.89267ZM8.55312 9.48175C8.55312 10.0494 8.09175 10.5096 7.52261 10.5096C6.95353 10.5096 6.49216 10.0494 6.49216 9.48175C6.49216 8.91409 6.95353 8.45392 7.52261 8.45392C8.09175 8.45392 8.55312 8.91409 8.55312 9.48175ZM4.53416 11.9745C5.2029 11.9745 5.74501 11.4338 5.74501 10.7668C5.74501 10.0998 5.2029 9.55911 4.53416 9.55911C3.86548 9.55911 3.32337 10.0998 3.32337 10.7668C3.32337 11.4338 3.86548 11.9745 4.53416 11.9745ZM2.8853 13.0021C2.8853 13.7968 2.23942 14.4411 1.44262 14.4411C0.645883 14.4411 0 13.7968 0 13.0021C0 12.2074 0.645883 11.5631 1.44262 11.5631C2.23942 11.5631 2.8853 12.2074 2.8853 13.0021ZM3.32351 8.96784C3.99225 8.96784 4.5343 8.4271 4.5343 7.76013C4.5343 7.09311 3.99225 6.55242 3.32351 6.55242C2.65477 6.55242 2.11271 7.09311 2.11271 7.76013C2.11271 8.4271 2.65477 8.96784 3.32351 8.96784ZM7.34191 6.4752C7.34191 7.04286 6.88054 7.50303 6.3114 7.50303C5.74232 7.50303 5.28095 7.04286 5.28095 6.4752C5.28095 5.90755 5.74232 5.44738 6.3114 5.44738C6.88054 5.44738 7.34191 5.90755 7.34191 6.4752ZM5.87368 4.77927C6.44282 4.77927 6.90413 4.3191 6.90413 3.75144C6.90413 3.18379 6.44282 2.72362 5.87368 2.72362C5.30454 2.72362 4.84317 3.18379 4.84317 3.75144C4.84317 4.3191 5.30454 4.77927 5.87368 4.77927ZM9.50612 3.26328C9.50612 3.76002 9.10246 4.16265 8.60446 4.16265C8.10647 4.16265 7.70281 3.76002 7.70281 3.26328C7.70281 2.76659 8.10647 2.36397 8.60446 2.36397C9.10246 2.36397 9.50612 2.76659 9.50612 3.26328ZM10.9486 4.16265C11.3754 4.16265 11.7214 3.81751 11.7214 3.39179C11.7214 2.96608 11.3754 2.62094 10.9486 2.62094C10.5218 2.62094 10.1757 2.96608 10.1757 3.39179C10.1757 3.81751 10.5218 4.16265 10.9486 4.16265ZM12.1596 6.11528C12.1596 6.54104 11.8135 6.88613 11.3866 6.88613C10.9598 6.88613 10.6138 6.54104 10.6138 6.11528C10.6138 5.68956 10.9598 5.34442 11.3866 5.34442C11.8135 5.34442 12.1596 5.68956 12.1596 6.11528ZM9.04252 6.91227C9.54052 6.91227 9.94417 6.50959 9.94417 6.0129C9.94417 5.51622 9.54052 5.11354 9.04252 5.11354C8.54452 5.11354 8.14087 5.51622 8.14087 6.0129C8.14087 6.50959 8.54452 6.91227 9.04252 6.91227ZM6.95557 13.2846C6.95557 13.5401 6.74798 13.7471 6.49186 13.7471C6.23575 13.7471 6.02815 13.5401 6.02815 13.2846C6.02815 13.0291 6.23575 12.8221 6.49186 12.8221C6.74798 12.8221 6.95557 13.0291 6.95557 13.2846ZM8.3469 13.516C8.65992 13.516 8.91363 13.2629 8.91363 12.9507C8.91363 12.6385 8.65992 12.3854 8.3469 12.3854C8.03387 12.3854 7.7801 12.6385 7.7801 12.9507C7.7801 13.2629 8.03387 13.516 8.3469 13.516ZM11.026 12.1029C11.026 12.4577 10.7377 12.7453 10.382 12.7453C10.0263 12.7453 9.73796 12.4577 9.73796 12.1029C9.73796 11.7482 10.0263 11.4606 10.382 11.4606C10.7377 11.4606 11.026 11.7482 11.026 12.1029ZM10.8713 14.8007C11.2981 14.8007 11.6442 14.4556 11.6442 14.0299C11.6442 13.6041 11.2981 13.259 10.8713 13.259C10.4444 13.259 10.0984 13.6041 10.0984 14.0299C10.0984 14.4556 10.4444 14.8007 10.8713 14.8007ZM9.04254 14.6464C9.04254 15.0011 8.75419 15.2888 8.39848 15.2888C8.04277 15.2888 7.75443 15.0011 7.75443 14.6464C7.75443 14.2916 8.04277 14.004 8.39848 14.004C8.75419 14.004 9.04254 14.2916 9.04254 14.6464ZM6.20846 15.2631C6.52148 15.2631 6.77525 15.01 6.77525 14.6978C6.77525 14.3856 6.52148 14.1325 6.20846 14.1325C5.89549 14.1325 5.64171 14.3856 5.64171 14.6978C5.64171 15.01 5.89549 15.2631 6.20846 15.2631ZM6.8782 16.3939C6.8782 16.7487 6.58986 17.0363 6.23415 17.0363C5.87844 17.0363 5.5901 16.7487 5.5901 16.3939C5.5901 16.0391 5.87844 15.7515 6.23415 15.7515C6.58986 15.7515 6.8782 16.0391 6.8782 16.3939ZM8.8621 17.3702C9.28896 17.3702 9.63496 17.025 9.63496 16.5993C9.63496 16.1736 9.28896 15.8285 8.8621 15.8285C8.43525 15.8285 8.08925 16.1736 8.08925 16.5993C8.08925 17.025 8.43525 17.3702 8.8621 17.3702ZM12.8295 16.1368C12.8295 16.6336 12.4258 17.0362 11.9278 17.0362C11.4299 17.0362 11.0262 16.6336 11.0262 16.1368C11.0262 15.6401 11.4299 15.2375 11.9278 15.2375C12.4258 15.2375 12.8295 15.6401 12.8295 16.1368ZM13.7311 19.2716C14.3001 19.2716 14.7615 18.8114 14.7615 18.2437C14.7615 17.6761 14.3001 17.2159 13.7311 17.2159C13.1619 17.2159 12.7006 17.6761 12.7006 18.2437C12.7006 18.8114 13.1619 19.2716 13.7311 19.2716ZM10.8457 18.6808C10.8457 19.1775 10.442 19.5801 9.94402 19.5801C9.44608 19.5801 9.04237 19.1775 9.04237 18.6808C9.04237 18.1841 9.44608 17.7814 9.94402 17.7814C10.442 17.7814 10.8457 18.1841 10.8457 18.6808ZM7.80569 21.3272C8.30363 21.3272 8.70735 20.9246 8.70735 20.4279C8.70735 19.9312 8.30363 19.5285 7.80569 19.5285C7.3077 19.5285 6.90399 19.9312 6.90399 20.4279C6.90399 20.9246 7.3077 21.3272 7.80569 21.3272ZM10.6137 22.5608C10.6137 23.1284 10.1523 23.5886 9.58315 23.5886C9.01406 23.5886 8.55269 23.1284 8.55269 22.5608C8.55269 21.9931 9.01406 21.533 9.58315 21.533C10.1523 21.533 10.6137 21.9931 10.6137 22.5608ZM14.3237 24C14.9925 24 15.5346 23.4593 15.5346 22.7923C15.5346 22.1253 14.9925 21.5846 14.3237 21.5846C13.6551 21.5846 13.1129 22.1253 13.1129 22.7923C13.1129 23.4593 13.6551 24 14.3237 24ZM12.752 20.8134C12.752 21.3811 12.2907 21.8413 11.7215 21.8413C11.1524 21.8413 10.6911 21.3811 10.6911 20.8134C10.6911 20.2458 11.1524 19.7856 11.7215 19.7856C12.2907 19.7856 12.752 20.2458 12.752 20.8134ZM16.3073 21.4303C16.976 21.4303 17.5181 20.8897 17.5181 20.2226C17.5181 19.5557 16.976 19.015 16.3073 19.015C15.6386 19.015 15.0965 19.5557 15.0965 20.2226C15.0965 20.8897 15.6386 21.4303 16.3073 21.4303ZM7.49657 18.3468C7.49657 18.7725 7.15057 19.1177 6.72372 19.1177C6.29692 19.1177 5.95086 18.7725 5.95086 18.3468C5.95086 17.921 6.29692 17.5759 6.72372 17.5759C7.15057 17.5759 7.49657 17.921 7.49657 18.3468Z" fill="black"/>
<path fill-rule="evenodd" clip-rule="evenodd" d="M50.7201 4C46.4372 4 42.7955 7.68044 42.7955 12.0261C42.7955 16.3993 46.4624 20.0772 50.7201 20.0523C55.0029 20.0523 58.6178 16.3993 58.6178 12.0261C58.6178 7.65301 55.0281 4 50.7201 4ZM50.7201 5.64708C54.0544 5.64708 56.8486 8.57998 56.8486 12.0261C56.8486 15.4998 54.0544 18.4302 50.7201 18.4302C47.3864 18.4302 44.567 15.4998 44.567 12.0261C44.567 8.57998 47.3864 5.64708 50.7201 5.64708ZM35.3333 4.28404H37.102V19.7931H35.3333V4.28404ZM67.695 5.95603H62.4905V4.28404H74.6459V5.95603H69.439V19.7931H67.6705L67.695 5.95603ZM78.0542 19.7931L83.9267 6.44443L89.7495 19.7931H91.6724L85.2359 5.15866C85.005 4.61792 84.4907 4.28404 83.9021 4.28404C83.3382 4.28404 82.7987 4.61792 82.5679 5.15866L76.1313 19.7931H78.0542Z" fill="black"/>
</g>
<defs>
<clipPath id="clip0_11324_7588">
<rect width="124" height="24" fill="white"/>
</clipPath>
</defs>
</svg>

<svg xmlns="http://www.w3.org/2000/svg" fill="none" viewBox="0 0 124 24">
  <g fill-rule="evenodd" clip-path="url(#iota-evm-logo-light_svg__a)" clip-rule="evenodd">
    <path fill="#48566A" d="m108.243 4.15 2.331 6.608h.092l2.33-6.607h.996L111.11 12h-.981l-2.882-7.85h.996ZM101.147 12V4.15h4.737v.844h-3.787v2.652h3.542v.843h-3.542v2.668h3.848V12h-4.798Zm15.526-7.85h-1.134V12h.889V6.036h.076L118.957 12h.859l2.453-5.964h.076V12h.889V4.15H122.1l-2.667 6.516h-.092l-2.668-6.515Z"/>
    <path fill="#000" d="M19.656 1.439a1.44 1.44 0 0 1-1.442 1.439 1.44 1.44 0 0 1-1.443-1.439A1.44 1.44 0 0 1 18.213 0a1.44 1.44 0 0 1 1.443 1.439Zm1.623 20.326a1.44 1.44 0 0 1-1.442 1.438 1.44 1.44 0 0 1-1.443-1.438 1.44 1.44 0 0 1 1.443-1.44 1.44 1.44 0 0 1 1.442 1.44Zm-2.653-15.29c.669 0 1.21-.54 1.21-1.207a1.21 1.21 0 0 0-1.21-1.208c-.669 0-1.21.54-1.21 1.208a1.21 1.21 0 0 0 1.21 1.207Zm4.431-.745a1.21 1.21 0 0 1-1.21 1.208 1.21 1.21 0 0 1-1.212-1.208 1.21 1.21 0 0 1 1.211-1.208 1.21 1.21 0 0 1 1.211 1.208Zm-4.843 3.803c.569 0 1.03-.46 1.03-1.028a1.03 1.03 0 0 0-1.03-1.028c-.57 0-1.03.46-1.03 1.028a1.03 1.03 0 0 0 1.03 1.028Zm4.25-.59a1.03 1.03 0 0 1-1.03 1.027c-.569 0-1.03-.46-1.03-1.028a1.03 1.03 0 0 1 1.03-1.028c.57 0 1.03.46 1.03 1.028Zm1.546 2.03a1.03 1.03 0 1 0 0-2.056c-.569 0-1.03.46-1.03 1.027a1.03 1.03 0 0 0 1.03 1.028Zm-2.628.564a.9.9 0 0 1-.902.9.9.9 0 1 1 0-1.799.9.9 0 0 1 .902.9ZM17.261 12a.9.9 0 1 0-.902-.9.9.9 0 0 0 .902.9Zm6.723.54a.9.9 0 0 1-.901.899.9.9 0 1 1 .901-.9Zm-4.791 1.772a.772.772 0 1 0 .002-1.543.772.772 0 0 0-.002 1.543Zm3.375.206a.772.772 0 1 1-1.544-.002.772.772 0 0 1 1.544.002Zm-6.57-.668A.772.772 0 1 0 16 12.306a.772.772 0 0 0-.002 1.544Zm2.422 1.08a.643.643 0 1 1-1.287-.002.643.643 0 0 1 1.287.001Zm.463 2.415a.566.566 0 1 0 .002-1.132.566.566 0 0 0-.002 1.132Zm-.901-.103a.463.463 0 1 1-.926-.001.463.463 0 0 1 .926.001Zm-1.675-.874a.566.566 0 1 0 .002-1.132.566.566 0 0 0-.002 1.132ZM15.2 14.493a.643.643 0 1 1-1.287-.002.643.643 0 0 1 1.287.002Zm-.67-4.19a.643.643 0 1 0 .001-1.286.643.643 0 0 0-.001 1.287Zm.85-2.826a.566.566 0 1 1-1.132-.001.566.566 0 0 1 1.132.001Zm.051-1.285a.463.463 0 1 0 .001-.926.463.463 0 0 0 0 .926Zm-.515-1.438a.566.566 0 1 1-1.132-.002.566.566 0 0 1 1.132.002Zm5.436 11.794a.643.643 0 1 0 .001-1.287.643.643 0 0 0-.001 1.287ZM13.525 3.93a.643.643 0 1 1-1.286-.001.643.643 0 0 1 1.286.001Zm-.206 3.367a.643.643 0 1 0 .002-1.287.643.643 0 0 0-.002 1.287Zm.052 1.824a.772.772 0 1 1-1.544-.002.772.772 0 0 1 1.544.002Zm-3.118.77a.9.9 0 1 0-.901-.899.9.9 0 0 0 .901.9Zm-1.7-.41a1.03 1.03 0 0 1-1.03 1.028 1.03 1.03 0 1 1 0-2.056c.569 0 1.03.46 1.03 1.028Zm-4.019 2.493a1.21 1.21 0 0 0 1.211-1.208 1.21 1.21 0 0 0-1.21-1.208c-.67 0-1.212.54-1.212 1.208a1.21 1.21 0 0 0 1.211 1.208Zm-1.649 1.027a1.44 1.44 0 0 1-1.442 1.44A1.44 1.44 0 0 1 0 13.001a1.44 1.44 0 0 1 1.443-1.439 1.44 1.44 0 0 1 1.442 1.44Zm.439-4.034c.668 0 1.21-.54 1.21-1.208a1.21 1.21 0 0 0-1.21-1.208c-.67 0-1.211.541-1.211 1.208a1.21 1.21 0 0 0 1.21 1.208Zm4.018-2.493a1.03 1.03 0 0 1-1.03 1.028 1.03 1.03 0 1 1 0-2.056c.569 0 1.03.46 1.03 1.028ZM5.874 4.78a1.03 1.03 0 1 0 0-2.056c-.57 0-1.03.46-1.03 1.028a1.03 1.03 0 0 0 1.03 1.028Zm3.632-1.516a.9.9 0 0 1-.902.9.9.9 0 1 1 .902-.9Zm1.443.9a.772.772 0 1 0 .002-1.544.772.772 0 0 0-.002 1.544Zm1.21 1.952a.772.772 0 1 1-1.543-.002.772.772 0 0 1 1.544.002Zm-3.116.797a.9.9 0 1 0-.902-.9.9.9 0 0 0 .902.9Zm-2.087 6.373a.463.463 0 1 1-.927-.001.463.463 0 0 1 .927 0Zm1.39.231a.566.566 0 1 0 .002-1.132.566.566 0 0 0-.001 1.132Zm2.68-1.413A.643.643 0 1 1 9.74 12.1a.643.643 0 0 1 1.286.002Zm-.155 2.698a.772.772 0 1 0 .002-1.544.772.772 0 0 0-.002 1.544Zm-1.828-.155a.643.643 0 1 1-1.287-.001.643.643 0 0 1 1.287.001Zm-2.835.617a.566.566 0 1 0 .002-1.132.566.566 0 0 0-.002 1.132Zm.67 1.13a.643.643 0 1 1-1.286 0 .643.643 0 0 1 1.286 0Zm1.984.977a.772.772 0 1 0 .002-1.544.772.772 0 0 0-.002 1.544Zm3.967-1.233a.9.9 0 0 1-.901.9.9.9 0 1 1 .901-.9Zm.902 3.135c.57 0 1.03-.46 1.03-1.028a1.03 1.03 0 0 0-1.03-1.028 1.03 1.03 0 1 0 0 2.056Zm-2.885-.591a.9.9 0 0 1-.902.9.9.9 0 1 1 .902-.9Zm-3.04 2.646a.9.9 0 1 0-.902-.9.9.9 0 0 0 .902.9Zm2.808 1.234a1.03 1.03 0 0 1-1.03 1.028 1.03 1.03 0 1 1 0-2.056c.568 0 1.03.46 1.03 1.028ZM14.324 24c.668 0 1.21-.54 1.21-1.208a1.21 1.21 0 0 0-1.21-1.207c-.669 0-1.211.54-1.211 1.207A1.21 1.21 0 0 0 14.323 24Zm-1.572-3.187a1.03 1.03 0 0 1-1.03 1.028 1.03 1.03 0 1 1 0-2.056c.569 0 1.03.46 1.03 1.028Zm3.555.617c.669 0 1.211-.54 1.211-1.207a1.21 1.21 0 0 0-1.21-1.208c-.67 0-1.211.54-1.211 1.208a1.21 1.21 0 0 0 1.21 1.207Zm-8.81-3.083a.772.772 0 1 1-1.544-.002.772.772 0 0 1 1.544.002ZM50.72 4c-4.283 0-7.925 3.68-7.925 8.026 0 4.373 3.667 8.051 7.925 8.026 4.283 0 7.898-3.653 7.898-8.026C58.618 7.653 55.028 4 50.72 4Zm0 1.647c3.334 0 6.129 2.933 6.129 6.38 0 3.473-2.795 6.403-6.129 6.403-3.334 0-6.153-2.93-6.153-6.404 0-3.446 2.82-6.379 6.153-6.379ZM35.333 4.284h1.769v15.51h-1.769V4.283Zm32.362 1.672h-5.204V4.284h12.155v1.672h-5.207v13.837h-1.768l.024-13.837Zm10.36 13.837 5.872-13.349 5.822 13.35h1.923L85.236 5.158a1.43 1.43 0 0 0-1.334-.875c-.564 0-1.103.334-1.334.875L76.13 19.793h1.923Z"/>
  </g>
  <defs>
    <clipPath id="iota-evm-logo-light_svg__a">
      <path fill="#fff" d="M0 0h124v24H0z"/>
    </clipPath>
  </defs>
</svg>
